resources/icons/16px/search-around.svg

<svg xmlns="http://www.w3.org/2000/svg" viewBox="0 0 16 16">
  <path d="M13.5 11c-.51 0-.98.15-1.38.42l-2.4-2.41c.17-.3.28-.64.28-1.01s-.11-.71-.28-1.01l2.41-2.41c.39.27.86.42 1.37.42a2.5 2.5 0 0 0 0-5A2.5 2.5 0 0 0 11 2.5c0 .51.15.98.42 1.38l-2.41 2.4C8.71 6.11 8.37 6 8 6s-.71.11-1.01.28l-2.41-2.4c.27-.4.42-.87.42-1.38a2.5 2.5 0 0 0-5 0A2.5 2.5 0 0 0 2.5 5c.51 0 .98-.15 1.38-.42l2.41 2.41C6.11 7.29 6 7.63 6 8s.11.71.28 1.01l-2.41 2.41c-.39-.27-.86-.42-1.37-.42a2.5 2.5 0 0 0 0 5A2.5 2.5 0 0 0 5 13.5c0-.51-.15-.98-.42-1.38l2.41-2.41c.3.18.64.29 1.01.29s.71-.11 1.01-.28l2.41 2.41c-.27.39-.42.86-.42 1.37a2.5 2.5 0 0 0 5 0 2.5 2.5 0 0 0-2.5-2.5m0-10c.83 0 1.5.67 1.5 1.5S14.33 4 13.5 4 12 3.33 12 2.5 12.67 1 13.5 1m-11 3C1.67 4 1 3.33 1 2.5S1.67 1 2.5 1 4 1.67 4 2.5 3.33 4 2.5 4m0 11c-.83 0-1.5-.67-1.5-1.5S1.67 12 2.5 12s1.5.67 1.5 1.5S3.33 15 2.5 15m11 0c-.83 0-1.5-.67-1.5-1.5s.67-1.5 1.5-1.5 1.5.67 1.5 1.5-.67 1.5-1.5 1.5"/>
</svg>

<?xml version="1.0" encoding="utf-8"?>
<!-- Generator: Adobe Illustrator 17.1.0, SVG Export Plug-In . SVG Version: 6.00 Build 0)  -->
<!DOCTYPE svg PUBLIC "-//W3C//DTD SVG 1.1//EN" "http://www.w3.org/Graphics/SVG/1.1/DTD/svg11.dtd">
<svg version="1.1" id="Layer_1" xmlns="http://www.w3.org/2000/svg" xmlns:xlink="http://www.w3.org/1999/xlink" x="0px" y="0px"
	 viewBox="0 0 16 16" enable-background="new 0 0 16 16" xml:space="preserve">
<g id="search_around_2_">
	<g>
		<path fill-rule="evenodd" clip-rule="evenodd" d="M13.5,11c-0.51,0-0.98,0.15-1.38,0.42L9.72,9.01C9.89,8.71,10,8.37,10,8
			S9.89,7.29,9.72,6.99l2.41-2.41C12.52,4.85,12.99,5,13.5,5C14.88,5,16,3.88,16,2.5C16,1.12,14.88,0,13.5,0S11,1.12,11,2.5
			c0,0.51,0.15,0.98,0.42,1.38L9.01,6.28C8.71,6.11,8.37,6,8,6S7.29,6.11,6.99,6.28L4.58,3.88C4.85,3.48,5,3.01,5,2.5
			C5,1.12,3.88,0,2.5,0S0,1.12,0,2.5C0,3.88,1.12,5,2.5,5c0.51,0,0.98-0.15,1.38-0.42l2.41,2.41C6.11,7.29,6,7.63,6,8
			s0.11,0.71,0.28,1.01l-2.41,2.41C3.48,11.15,3.01,11,2.5,11C1.12,11,0,12.12,0,13.5C0,14.88,1.12,16,2.5,16S5,14.88,5,13.5
			c0-0.51-0.15-0.98-0.42-1.38l2.41-2.41C7.29,9.89,7.63,10,8,10s0.71-0.11,1.01-0.28l2.41,2.41C11.15,12.52,11,12.99,11,13.5
			c0,1.38,1.12,2.5,2.5,2.5s2.5-1.12,2.5-2.5C16,12.12,14.88,11,13.5,11z M13.5,1C14.33,1,15,1.67,15,2.5S14.33,4,13.5,4
			S12,3.33,12,2.5S12.67,1,13.5,1z M2.5,4C1.67,4,1,3.33,1,2.5S1.67,1,2.5,1S4,1.67,4,2.5S3.33,4,2.5,4z M2.5,15
			C1.67,15,1,14.33,1,13.5S1.67,12,2.5,12S4,12.67,4,13.5S3.33,15,2.5,15z M13.5,15c-0.83,0-1.5-0.67-1.5-1.5s0.67-1.5,1.5-1.5
			s1.5,0.67,1.5,1.5S14.33,15,13.5,15z"/>
	</g>
</g>
</svg>
